X: 2043
T: Oj Pido Ja Szicher Wicher
B: steve tunes
M:2/4
L:1/16
Q: 1/4=60
K:Dm
V:1 
 |:"A"A2^cd efed  | ^c2cd "Dm"d2d2 | "A"e4 gfed |^c2cA d4| "A"A2^cd efed |
 ^cAcA "Dm"dAd2 |"A" ^c2Ac "Gm"BABG  | "A"A^cd2 A4:||:AB^cd efed | ^cAce "Dm"dAdf |
 e^ceg fefd  | eae^c "Dm"d4 | "A"A2^cd efed | ^cAce "Dm"dcd2  |"A" ^c2Ac "Gm"BABG |"A" 
 A^cd2 A4:||: "F"fefg a2fa | "C7"g^fge= c4 |cdef gaba |
"F"a4 "A7"agfe |"Dm"d^cde fgaf | "A"ege^c A4 | A2^cd edcA  |1"Dm" d6 e2:|
|2 "Dm"d6 A2 ||: "A"A2A^c A2Ac | "Dm"d2 d2 afed | "A"^cdec Acec |"Dm"d6 a2 |
 "A"A2A^c A2Ac |"Dm" d2d2 gfed|1 "A"^cdec Acec | "Dm"d2A2 x4 :||2 "A"^c2cA "Gm"B2B2 |"A" A8 ||
% abcbook-tune_id 62a53658c91445afff8cc3f2


% abcbook-boost 0
% abcbook-tablature 
% abcbook-transpose 
% abcbook-lastupdated 1654998201127
% abcbook-soundfonts 
% abcbook-repeats 3
%%scale 0.71
%%pagewidth 21.59cm
%%leftmargin 2.33cm
%%rightmargin 2.33cm

